X:257
M:4/4
L:1/4
K:Bb
G2 B c | d2 c2 | B A G ^F | G2 A2 | B G A2 | d2 c c | B2 A2 | G4 | A2 B c | d2 c2 | B G c B | A2 !sintro!D2 | G ^F G2 | c2 B A | G2 ^F2 | G4 !eintro!|]
